src/icons/dngroup.svg

<svg width="57" viewBox="0 0 57 64" xmlns="http://www.w3.org/2000/svg">
  <path fill-rule="evenodd" clip-rule="evenodd" d="M23.7292 44.9042V40.5802C14.6934 38.4352 7.95022 30.2812 7.95022 20.5709C7.95022 9.22986 17.1479 0 28.4494 0C39.751 0 48.9487 9.22986 48.9487 20.5709C48.9487 30.2812 42.2055 38.4352 33.1697 40.5802V44.9042C31.5783 45.6621 30.0004 46.4606 28.4494 47.3132C26.8985 46.4606 25.3206 45.6688 23.7292 44.9042ZM40.8569 20.5709C40.8569 13.7027 35.287 8.12011 28.4494 8.12011C21.6119 8.12011 16.042 13.7027 16.042 20.5709C16.042 27.4392 21.6051 33.0218 28.4494 33.0218C35.2938 33.0218 40.8569 27.4324 40.8569 20.5709Z"></path>
  <path d="M1.58464 44.8433C11.0183 46.7312 20.0677 50.0334 28.4966 54.6551C36.9323 50.0334 45.9749 46.7312 55.4154 44.8365L57 52.801C47.6742 54.6754 38.7665 58.0452 30.5196 62.8226L28.4966 64L26.4737 62.8226C18.2335 58.0452 9.3258 54.6686 0 52.801L1.58464 44.8433Z"></path>
</svg>

<svg xmlns="http://www.w3.org/2000/svg" viewBox="0 0 57 64">
  <title>DN Media Group</title>
  <path fill="var(--logo-fill-color)" d="M23.73 44.904V40.58C14.692 38.435 7.95 30.281 7.95 20.57 7.95 9.23 17.148 0 28.45 0c11.3 0 20.498 9.23 20.498 20.57 0 9.711-6.743 17.865-15.78 20.01v4.324a91.16 91.16 0 0 0-4.72 2.41 96.732 96.732 0 0 0-4.72-2.41Zm17.127-24.333c0-6.868-5.57-12.45-12.408-12.45-6.837 0-12.407 5.582-12.407 12.45 0 6.868 5.563 12.45 12.407 12.45 6.845 0 12.408-5.589 12.408-12.45Z"/>
  <path fill="var(--logo-fill-color)" d="M1.585 44.843a94.452 94.452 0 0 1 26.912 9.812 94.714 94.714 0 0 1 26.918-9.819L57 52.802a86.864 86.864 0 0 0-26.48 10.022L28.497 64l-2.023-1.177A86.585 86.585 0 0 0 0 52.8l1.585-7.958Z"/>
</svg>
